X:5730
T:Gan ainm
R:Strathspey
S:(Unknown group)
H:
N:
D:
Z:Adrian Scahill
M:4/4
L:1/8
K:D
A2AF ABde|fdef edBd|A2AF ABde|1 fd (3efe d2 dB:|2 fd (3efe d2 d>e ||\
f<a af bfbf|afef edBd|1 f<a af bfbf|af (3efe d2 d>e:|2 A2AF ABde|fd (3ef
e d4||
